icons/buwana-logo.svg

<?xml version="1.0" encoding="UTF-8"?>
<!-- Created with Inkscape (http://www.inkscape.org/) -->
<svg width="13.136mm" height="2.451mm" version="1.1" viewBox="0 0 13.136 2.451" xmlns="http://www.w3.org/2000/svg">
 <g transform="translate(-64.993 -84.481)">
  <path d="m64.993 84.481v0.42478h0.22479v1.9875h0.47594v-0.043408c0.052708 0.02274 0.10852 0.04031 0.16743 0.05271 0.058911 0.0124 0.12092 0.018603 0.18604 0.018603 0.12092 0 0.23203-0.021706 0.33331-0.065112 0.10129-0.044442 0.18862-0.10439 0.262-0.17983 0.073381-0.076481 0.13022-0.16588 0.17053-0.2682 0.04134-0.10232 0.062012-0.21136 0.062012-0.32711 0-0.11472-0.021189-0.22324-0.063562-0.32556-0.041342-0.10232-0.098703-0.19172-0.17208-0.2682-0.073381-0.076483-0.16071-0.13694-0.262-0.18138s-0.21136-0.066663-0.33021-0.066663c-0.06201 0-0.12247 0.007238-0.18138 0.021704-0.058908 0.014467-0.11627 0.035139-0.17208 0.062012v-0.84181h-0.70073zm7.1856 0.7705c-0.12919 0-0.25166 0.01912-0.36742 0.05736-0.10482 0.034942-0.20576 0.084379-0.30282 0.1478v-0.1695h-0.83871v0.42478h0.17208l-0.20464 0.62322-0.33331-1.048h-0.45424l-0.33021 0.99684-0.17053-0.57206h0.18138v-0.42478h-0.83871v0.42478h0.17983l0.39843 1.1875h0.45114l0.34262-1.0247 0.33641 1.0247h0.46354l0.42943-1.1875h0.21549v-0.1819l0.12144 0.24546c0.068214-0.036174 0.13901-0.063566 0.21239-0.082166 0.074414-0.01964 0.1602-0.029455 0.25735-0.029455 0.04651 0 0.089401 0.004652 0.12867 0.013952 0.039273 0.008267 0.072863 0.022218 0.10077 0.041858 0.027907 0.0186 0.049613 0.042891 0.065113 0.072864 0.0155 0.02894 0.023254 0.063563 0.023254 0.10387v0.04961c-0.051675-0.011373-0.108-0.020672-0.16898-0.027905-0.059945-0.008267-0.12661-0.012403-0.19999-0.012403-0.10025 0-0.18965 0.012918-0.2682 0.038758-0.077518 0.024806-0.14315 0.059946-0.19689 0.10542-0.053742 0.044441-0.095083 0.098184-0.12402 0.16123-0.027907 0.063045-0.041858 0.13177-0.041858 0.20619 0 0.073379 0.013951 0.14159 0.041858 0.20464 0.027909 0.062014 0.067699 0.11627 0.11937 0.16278 0.05271 0.045474 0.11679 0.081648 0.19224 0.10852 0.076481 0.02584 0.16278 0.038757 0.2589 0.038757 0.03824 0 0.07338-0.002551 0.10542-0.007751 0.03204-0.004134 0.063044-0.011371 0.093017-0.021704 0.029974-0.009307 0.059944-0.021707 0.089917-0.037207 0.029974-0.016534 0.063046-0.036172 0.099219-0.058912v0.086817h0.66973v-0.42478h-0.21549v-0.58446c0-0.11576-0.01757-0.21394-0.05271-0.29456-0.034105-0.080618-0.081647-0.14573-0.14263-0.19534-0.060978-0.05064-0.13436-0.086814-0.22014-0.10852-0.084749-0.02274-0.17725-0.034106-0.2775-0.034106zm3.7186 0c-0.12919 0-0.25166 0.01912-0.36742 0.05736-0.11472 0.038241-0.22479 0.093535-0.33021 0.16588l0.14883 0.30076c0.068214-0.036174 0.13901-0.063566 0.21239-0.082166 0.074414-0.01964 0.1602-0.029455 0.25735-0.029455 0.04651 0 0.089401 0.004652 0.12867 0.013952 0.039273 0.008267 0.072863 0.022218 0.10077 0.041858 0.027907 0.0186 0.049613 0.042891 0.065113 0.072864 0.0155 0.02894 0.023254 0.063563 0.023254 0.10387v0.04961c-0.051675-0.011373-0.108-0.020672-0.16898-0.027905-0.059945-0.008267-0.12661-0.012403-0.19999-0.012403-0.10025 0-0.18965 0.012918-0.2682 0.038758-0.077518 0.024806-0.14315 0.059946-0.19689 0.10542-0.053742 0.044441-0.095083 0.098184-0.12402 0.16123-0.027907 0.063045-0.041858 0.13177-0.041858 0.20619 0 0.017325 0.001028 0.03441 0.002584 0.05116h-0.16278v-0.57516c0-0.20774-0.052193-0.36535-0.15658-0.47284-0.10439-0.10852-0.25322-0.16278-0.44648-0.16278-0.091984 0-0.17983 0.015502-0.26355 0.046509-0.082682 0.029976-0.15761 0.071316-0.22479 0.12402v-0.14108h-0.73174v0.42478h0.23254v0.75654h-0.23564v0.42478h0.99839v-0.42478h-0.26045v-0.61857c0.051673-0.06511 0.1049-0.10955 0.15968-0.13333 0.05478-0.023773 0.10904-0.035656 0.16278-0.035656 0.078551 0 0.1416 0.025834 0.18914 0.077514 0.04754 0.050643 0.071314 0.12092 0.071314 0.21084v0.92398h0.73329v-0.22169c0.024951 0.041783 0.056135 0.079511 0.093535 0.11317 0.05271 0.045474 0.11679 0.081648 0.19224 0.10852 0.076481 0.02584 0.16278 0.038757 0.2589 0.038757 0.03824 0 0.07338-0.002551 0.10542-0.007751 0.03204-0.004134 0.063044-0.011371 0.093017-0.021704 0.029974-0.009307 0.059944-0.021707 0.089917-0.037207 0.029974-0.016534 0.063046-0.036172 0.099219-0.058912v0.086817h0.66973v-0.42478h-0.21549v-0.58446c0-0.11576-0.01757-0.21394-0.05271-0.29456-0.034105-0.080618-0.081647-0.14573-0.14263-0.19534-0.060978-0.05064-0.13436-0.086814-0.22014-0.10852-0.084749-0.02274-0.17725-0.034106-0.2775-0.034106zm-9.0976 0.035656v0.42478h0.20929v0.5209c0 0.11472 0.016536 0.21446 0.049609 0.29921 0.034104 0.084746 0.080096 0.15554 0.13798 0.21239 0.058911 0.055809 0.12764 0.097667 0.20619 0.12557 0.078548 0.027907 0.16226 0.041858 0.25115 0.041858 0.096118 0 0.18087-0.013434 0.25425-0.040307 0.073378-0.026874 0.13746-0.065115 0.19224-0.11472v0.13643h0.68058v-0.42478h-0.19379v-1.1813h-0.75964v0.42478h0.25735v0.62942c-0.022741 0.065112-0.059431 0.11679-0.11007 0.15503-0.050641 0.03824-0.10697 0.057361-0.16898 0.057361-0.087846 0-0.15916-0.026359-0.21394-0.079065-0.05478-0.053744-0.082166-0.13436-0.082166-0.24185v-0.94568h-0.71003zm-0.76378 0.16382a0.63622 0.63622 0 0 1 0.63614 0.63614 0.63622 0.63622 0 0 1-0.63614 0.63614 0.63622 0.63622 0 0 1-0.63614-0.63614 0.63622 0.63622 0 0 1 0.63614-0.63614zm6.0095 0.78806h0.37207v0.20464c-0.042373 0.034107-0.093532 0.063043-0.15348 0.086816-0.059945 0.023774-0.12661 0.035657-0.19999 0.035657-0.07028 0-0.12299-0.016019-0.15813-0.048059-0.034106-0.032042-0.051159-0.071833-0.051159-0.11937 0-0.025833 0.005169-0.048572 0.015503-0.068212 0.011366-0.01964 0.025834-0.036177 0.043408-0.04961 0.0186-0.01344 0.039272-0.023772 0.062012-0.031006 0.022733-0.007233 0.045989-0.010852 0.069763-0.010852zm3.7186 0h0.37207v0.20464c-0.042373 0.034107-0.093532 0.063043-0.15348 0.086816-0.059945 0.023774-0.12661 0.035657-0.19999 0.035657-0.070279 0-0.12299-0.016019-0.15813-0.048059-0.034106-0.032042-0.051159-0.071833-0.051159-0.11937 0-0.025833 0.005169-0.048572 0.015503-0.068212 0.011373-0.01964 0.025841-0.036177 0.043408-0.04961 0.0186-0.01344 0.039272-0.023772 0.062012-0.031006 0.022733-0.007233 0.045989-0.010852 0.069763-0.010852z" stroke-width=".26458"/>
 </g>
</svg>

<?xml version="1.0" encoding="UTF-8" standalone="no"?>
<!-- Created with Inkscape (http://www.inkscape.org/) -->

<svg
   width="13.135633mm"
   height="2.4510131mm"
   viewBox="0 0 13.135633 2.4510131"
   version="1.1"
   id="svg1"
   inkscape:version="1.4.1-rc (06eac75fbf, 2025-03-29)"
   sodipodi:docname="Buwana Logo.svg"
   xmlns:inkscape="http://www.inkscape.org/namespaces/inkscape"
   xmlns:sodipodi="http://sodipodi.sourceforge.net/DTD/sodipodi-0.dtd"
   xmlns="http://www.w3.org/2000/svg"
   xmlns:svg="http://www.w3.org/2000/svg">
  <sodipodi:namedview
     id="namedview1"
     pagecolor="#ffffff"
     bordercolor="#000000"
     borderopacity="0.25"
     inkscape:showpageshadow="2"
     inkscape:pageopacity="0.0"
     inkscape:pagecheckerboard="0"
     inkscape:deskcolor="#d1d1d1"
     inkscape:document-units="mm"
     inkscape:zoom="17.937883"
     inkscape:cx="23.191142"
     inkscape:cy="8.5573086"
     inkscape:window-width="2256"
     inkscape:window-height="1427"
     inkscape:window-x="0"
     inkscape:window-y="40"
     inkscape:window-maximized="1"
     inkscape:current-layer="layer1" />
  <defs
     id="defs1" />
  <g
     inkscape:label="Layer 1"
     inkscape:groupmode="layer"
     id="layer1"
     transform="translate(-64.993185,-84.480933)">
    <path
       id="text1"
       style="font-weight:bold;font-size:3.175px;font-family:Arvo;-inkscape-font-specification:'Arvo Bold';letter-spacing:-0.264583px;stroke-width:0.264583"
       d="M 64.993185 84.480933 L 64.993185 84.905713 L 65.217977 84.905713 L 65.217977 86.893189 L 65.693917 86.893189 L 65.693917 86.849781 C 65.746625 86.872521 65.802436 86.890091 65.861349 86.902491 C 65.92026 86.914891 65.982271 86.921094 66.047384 86.921094 C 66.168307 86.921094 66.279411 86.899388 66.380697 86.855982 C 66.481983 86.81154 66.569316 86.751596 66.642697 86.676148 C 66.716078 86.599667 66.772922 86.510266 66.813229 86.407947 C 66.854569 86.305628 66.875241 86.196591 66.875241 86.080835 C 66.875241 85.966113 66.854052 85.857593 66.811679 85.755274 C 66.770337 85.652954 66.712976 85.563554 66.639596 85.487073 C 66.566215 85.41059 66.478883 85.350129 66.377597 85.305689 C 66.276311 85.261249 66.16624 85.239026 66.047384 85.239026 C 65.985374 85.239026 65.924913 85.246264 65.866 85.26073 C 65.807092 85.275197 65.749731 85.295869 65.693917 85.322742 L 65.693917 84.480933 L 64.993185 84.480933 z M 72.178793 85.251429 C 72.049602 85.251429 71.927129 85.270549 71.811373 85.308789 C 71.706549 85.343731 71.605608 85.393168 71.50855 85.456584 L 71.50855 85.287085 L 70.669841 85.287085 L 70.669841 85.711866 L 70.841924 85.711866 L 70.637285 86.335083 L 70.303972 85.287085 L 69.849736 85.287085 L 69.519524 86.283924 L 69.348991 85.711866 L 69.530376 85.711866 L 69.530376 85.287085 L 68.691667 85.287085 L 68.691667 85.711866 L 68.871501 85.711866 L 69.269927 86.89939 L 69.721062 86.89939 L 70.063677 85.874646 L 70.40009 86.89939 L 70.863628 86.89939 L 71.293059 85.711866 L 71.50855 85.711866 L 71.50855 85.529965 L 71.629989 85.775428 C 71.698203 85.739254 71.768999 85.711862 71.842379 85.693262 C 71.916793 85.673622 72.002577 85.663807 72.099728 85.663807 C 72.146238 85.663807 72.189129 85.668459 72.228402 85.677759 C 72.267675 85.686026 72.301265 85.699977 72.329171 85.719617 C 72.357078 85.738217 72.378784 85.762508 72.394284 85.792481 C 72.409784 85.821421 72.417538 85.856044 72.417538 85.89635 L 72.417538 85.94596 C 72.365863 85.934587 72.309536 85.925288 72.248556 85.918055 C 72.188611 85.909788 72.121948 85.905652 72.048568 85.905652 C 71.948316 85.905652 71.858916 85.91857 71.780368 85.94441 C 71.70285 85.969216 71.63722 86.004356 71.58348 86.049829 C 71.529738 86.09427 71.488397 86.148013 71.459457 86.21106 C 71.43155 86.274105 71.417599 86.342834 71.417599 86.417249 C 71.417599 86.490628 71.43155 86.558841 71.459457 86.621888 C 71.487366 86.683902 71.527156 86.738162 71.57883 86.784668 C 71.63154 86.830142 71.695619 86.866316 71.771066 86.893189 C 71.847547 86.919029 71.933847 86.931946 72.029965 86.931946 C 72.068205 86.931946 72.103345 86.929395 72.135385 86.924195 C 72.167425 86.920061 72.198429 86.912824 72.228402 86.902491 C 72.258376 86.893184 72.288346 86.880784 72.318319 86.865284 C 72.348293 86.84875 72.381365 86.829112 72.417538 86.806372 L 72.417538 86.893189 L 73.087265 86.893189 L 73.087265 86.468409 L 72.871774 86.468409 L 72.871774 85.883948 C 72.871774 85.768193 72.854204 85.670008 72.819064 85.589392 C 72.784959 85.508774 72.737417 85.443662 72.676437 85.394056 C 72.615459 85.343416 72.542078 85.307242 72.456295 85.285535 C 72.371546 85.262795 72.279046 85.251429 72.178793 85.251429 z M 75.897429 85.251429 C 75.768238 85.251429 75.645765 85.270549 75.53001 85.308789 C 75.415288 85.34703 75.305217 85.402324 75.199797 85.474671 L 75.348625 85.775428 C 75.416839 85.739254 75.487635 85.711862 75.561015 85.693262 C 75.635429 85.673622 75.721213 85.663807 75.818364 85.663807 C 75.864874 85.663807 75.907765 85.668459 75.947038 85.677759 C 75.986311 85.686026 76.019901 85.699977 76.047807 85.719617 C 76.075714 85.738217 76.09742 85.762508 76.11292 85.792481 C 76.12842 85.821421 76.136174 85.856044 76.136174 85.89635 L 76.136174 85.94596 C 76.084499 85.934587 76.028172 85.925288 75.967192 85.918055 C 75.907247 85.909788 75.840584 85.905652 75.767204 85.905652 C 75.666952 85.905652 75.577552 85.91857 75.499004 85.94441 C 75.421486 85.969216 75.355856 86.004356 75.302116 86.049829 C 75.248374 86.09427 75.207033 86.148013 75.178093 86.21106 C 75.150186 86.274105 75.136235 86.342834 75.136235 86.417249 C 75.136235 86.434574 75.137263 86.451659 75.138819 86.468409 L 74.976038 86.468409 L 74.976038 85.89325 C 74.976038 85.685511 74.923845 85.527898 74.819459 85.420411 C 74.715072 85.31189 74.566244 85.25763 74.372974 85.25763 C 74.28099 85.25763 74.19314 85.273132 74.109424 85.304139 C 74.026742 85.334115 73.951811 85.375455 73.884632 85.428162 L 73.884632 85.287085 L 73.152894 85.287085 L 73.152894 85.711866 L 73.385438 85.711866 L 73.385438 86.468409 L 73.149793 86.468409 L 73.149793 86.893189 L 74.148182 86.893189 L 74.148182 86.468409 L 73.887733 86.468409 L 73.887733 85.849842 C 73.939406 85.784732 73.992633 85.74029 74.047413 85.716516 C 74.102193 85.692743 74.156453 85.68086 74.210193 85.68086 C 74.288744 85.68086 74.351789 85.706694 74.399329 85.758374 C 74.446869 85.809017 74.470643 85.879297 74.470643 85.969214 L 74.470643 86.893189 L 75.203931 86.893189 L 75.203931 86.671497 C 75.228882 86.71328 75.260066 86.751008 75.297466 86.784668 C 75.350176 86.830142 75.414255 86.866316 75.489702 86.893189 C 75.566183 86.919029 75.652483 86.931946 75.748601 86.931946 C 75.786841 86.931946 75.821981 86.929395 75.854021 86.924195 C 75.886061 86.920061 75.917065 86.912824 75.947038 86.902491 C 75.977012 86.893184 76.006982 86.880784 76.036955 86.865284 C 76.066929 86.84875 76.100001 86.829112 76.136174 86.806372 L 76.136174 86.893189 L 76.805901 86.893189 L 76.805901 86.468409 L 76.59041 86.468409 L 76.59041 85.883948 C 76.59041 85.768193 76.57284 85.670008 76.5377 85.589392 C 76.503595 85.508774 76.456053 85.443662 76.395073 85.394056 C 76.334095 85.343416 76.260714 85.307242 76.174931 85.285535 C 76.090182 85.262795 75.997682 85.251429 75.897429 85.251429 z M 66.799793 85.287085 L 66.799793 85.711866 L 67.009083 85.711866 L 67.009083 86.232764 C 67.009083 86.347485 67.025619 86.447221 67.058692 86.531971 C 67.092796 86.616717 67.138788 86.687514 67.196668 86.744361 C 67.255579 86.80017 67.324309 86.842028 67.402857 86.869934 C 67.481405 86.897841 67.565121 86.911792 67.654004 86.911792 C 67.750122 86.911792 67.834872 86.898358 67.908253 86.871485 C 67.981631 86.844611 68.045709 86.80637 68.100489 86.756763 L 68.100489 86.893189 L 68.781067 86.893189 L 68.781067 86.468409 L 68.587281 86.468409 L 68.587281 85.287085 L 67.827637 85.287085 L 67.827637 85.711866 L 68.084986 85.711866 L 68.084986 86.341285 C 68.062245 86.406397 68.025555 86.458074 67.974915 86.496314 C 67.924274 86.534554 67.867947 86.553675 67.805933 86.553675 C 67.718087 86.553675 67.646773 86.527316 67.591993 86.47461 C 67.537213 86.420866 67.509827 86.340251 67.509827 86.232764 L 67.509827 85.287085 L 66.799793 85.287085 z M 66.036015 85.4509 A 0.63621825 0.63621825 0 0 1 66.672152 86.087037 A 0.63621825 0.63621825 0 0 1 66.036015 86.723173 A 0.63621825 0.63621825 0 0 1 65.399879 86.087037 A 0.63621825 0.63621825 0 0 1 66.036015 85.4509 z M 72.045468 86.238965 L 72.417538 86.238965 L 72.417538 86.443604 C 72.375165 86.477711 72.324006 86.506647 72.264059 86.53042 C 72.204114 86.554194 72.137451 86.566077 72.064071 86.566077 C 71.993791 86.566077 71.941081 86.550058 71.905941 86.518018 C 71.871835 86.485976 71.854782 86.446185 71.854782 86.398645 C 71.854782 86.372812 71.859951 86.350073 71.870285 86.330433 C 71.881651 86.310793 71.896119 86.294256 71.913693 86.280823 C 71.932293 86.267383 71.952965 86.257051 71.975705 86.249817 C 71.998438 86.242584 72.021694 86.238965 72.045468 86.238965 z M 75.764104 86.238965 L 76.136174 86.238965 L 76.136174 86.443604 C 76.093801 86.477711 76.042642 86.506647 75.982695 86.53042 C 75.92275 86.554194 75.856088 86.566077 75.782707 86.566077 C 75.712428 86.566077 75.659717 86.550058 75.624577 86.518018 C 75.590471 86.485976 75.573418 86.446185 75.573418 86.398645 C 75.573418 86.372812 75.578587 86.350073 75.588921 86.330433 C 75.600294 86.310793 75.614762 86.294256 75.632329 86.280823 C 75.650929 86.267383 75.671601 86.257051 75.694341 86.249817 C 75.717074 86.242584 75.74033 86.238965 75.764104 86.238965 z " />
  </g>
</svg>
